X:1
%%scale 0.65
T:Desperavi
C:Michael East
%%score [1 | 2 |3 |4 |5]
M:4/2
L:1/4
K:F
V:1 name="Treble I"
Z3 | z4 z2 A2-| A2 B G ^F3 G | A2 d3 c B2 | A4 z2 d2 | ^c2 d2 e4 | z8 |
z2 d4 G B |A2 G2 ^F2 G2-|G2 ^F2 G2 g2-|g f _e2 d2 e2 | d4 c4 | d2 f _e d2 c2 | z2 g4 c _e |
d8 | A2 d4 d2 |^c2 d4 c2 |d4 z4 | z2 A4 B G |^F2 G4 F2 | G4 z4 |
z2 a4 d f | e2 d4 ^c2 |d2 d4 c2 | =B3 B c d e c |d2 g4 f2 | e3 e d4 ||
z A/B/ c c c c/B/ A G | A/B/ c2 f e2 d2 | c d3/2 c/B/A/ G F G2 | A f>_e d c B2 A |
B>c d g>f _e d2 | c/A/ a>g f e d2 ^c |d3 c B2 A F/G/ |A/B/ c2 =B c _B2 A |
e/f/ g2 f e A/B/ c2 |!mediumphrase! c2 c2 A3 A | A4 z4 |Z4| A G F G A4 |
e d ^c d e d c d |e2 d4 ^c2 |!mediumphrase!d2 A3 B c2-|c2 d4 c B | A B c4 B A | G2 A2 G4-|
G2 F2 E4 | D2 d2 c4 | B4 A2 z c-| c/B/ A G A/B/ c d>c B |A G A B/c/ d4 |
z8 | F4 f2 d2 | c2 A B c4 | !mediumphrase!c2 c2 ^c3 c |^c2 A2 z2 a2-|a A A2 F2 B2 |
c2 d4 e2-|e A A2 A4 | z2 A B A2 F G | A4 z2 A B |c2 F G A4 |
z4 z2 e2 |^f2 g4 f2 |g2 g4 f2 |e4 z2 A =B |^c2 d4 c2 | Hd8|]
V:2 name="Treble II"
Z6 | z2 d4 G B | A2 d4 ^c2 |d8| z2 A2 B c d2-|d2 c4 B2 |
A4 G4-|G4 z4 | z2 g4 c _e | d3 c =B2 c2-|c2 =B2 c2 G2-|G A B2 A2 G2 |
z8 | z4 z2 a2-| a2 d f e2 d2-| d2 ^c2 d2 d2-| d c B2 A3 A |B c d2 ^c3 d |
e2 d2 z2 a2- |a2 d f e4 | d2 A2 ^G2 A2-| A2 ^G2 A4 | z4 z E F G | A4 A4 ||
z c/B/ A G A A/B/ c c-|c f e d2 ^c d/e/ f-|f f d2 c/B/A/B/ c2 |c2 c f>_e d c2 | B/G/ g>f _e d c2 =B |
c>d e a>g f e2 | d B/c/d/e/ f2 e f a-|a g f2 e/f/ g2 f |c B2 A/B/ c2 G2 | A4 z4 | z2 d2 e f g2-|
g2 f4 e2-|e f d4 ^c =B |^c4 z4 | z8 | z2 d2 e2 ^c2 |z2 e d ^c  d e f |
g3 f e d e2 |!mediumphrase!^f2 d4 c B |A2 F2 f4-|f4 z4 | z2 c2 c4 |^c2 d2 e2 A2-|
A2 G2 A4 | z4 z c>B A |  G A/B/ c c2 B/c/ d d-|d/c/ B A G z2 d2 | A3 A G4 |
A2 d3 c B A | G2 F2 G4 | !mediumphrase! A2 f2 e3 e | e2 a3 A A2 | A2 z2 z2 e2-|
e A A2 A2 ^c d | e2 d4 ^c2 |d4 c4 | z2 A B c2 F G | A4 z4 |
z2 f g a2 A2-| A2 B2 A4 |B c d2 ^c2 A =B |^c2 A4 a2-|a g f2 e3 e | Hd8 |]
V:3 name="Tenor I" clef=alto middle=c octave=-1
a6 d f |e2 ^c3 c d2-|d2 A2 B c d2 | ^c2 d4 c2 |d4 z2 a2-|a2 b g ^f2 g2-|
g2 ^f2 g4 |e2 f g a4 | z2 d'3 c' b2 |a4 g4 |z4 z2 d2 | d3 c =B4 |G2 c2 G4 |
g3 f _e f g2-| g2 f4 _e2 | d3 d _e f g2 | z2 d4 b g | ^f3 g  a2 g2 | a4 a3 g |
f g a2 z2 d e |f2 e2 d2 G2 | A2 B c d4 | z4 z2 e2-| e2 f d ^c2 d2 |
e2 A2 z2 a2-|a2 d f e2 e2-| e2 =B2 A2 z e | g f e d ^c2 d2-|d2 ^c2 d4 ||
z4 z f f e |f/g/ a g f/g/ a2 a2 |a b3/2 a/g/f/ e f2 e | f8 | g8 | a8 | b3 a g2 f2 |
z g a f g2 z a/b/ |c' g2 c/d/ e f2 e |!mediumphrase!f2 f2 e3 e | e2 a2 g3 a |b2 a4 g2-|g a f4 e d |
e4 e d ^c d | e d ^c d e2 d2 |^c2 f2 e4 | z4 z2 a2 | b4 a4 |a4 z2 a2- | a2 b4 a g |
f g a4 g f | e2 f4 e2-|e2 d4 ^c2 | d2 g4 f2-|f2 e2 f2 c2 | z c'>b a g2 a b/c'/|
d' d'>c' b a2 f2 | e2 d2 z4 | z8 | z8| z2 a3 A A2 | A2 f2 e2 d2 | ^c4 d2 g2-|
g2 f4 e d |^c2 d2 e3 e | ^f4 z2 a b | c'2 f g a4 | z2 a b c'2 f2 |
e2 d2 e4 | d8 | d2 g f e2 d2 | z2 ^c d e2 d2 |z2 a3 g e2 | H^f8 |]
V:4 name="Tenor II" clef=alto middle=c octave=-1
z8 | z8 | z2 d4 G B | A2 F2 E4 | F2 D2 A2 d2-|d c B2 A2 G2 |
A4 B G g2-|g2 f2 e2 A2-|A2 B G ^F2 G2-|G2 ^F2 G4 | A B c2 d4 | z4 z2 d2-|
d2 _e c =B2 c2-|c2 =B2 c4 | B2 F2 G4-| G4 c4 | B2 G2 ^F2 G2 | d3 e ^f d g2-|
g2 f2 e4 | d2 A2 B c d2 | z8 | z4 z2 d2-|d2 G B A4-|A4 e2 f d |
^c2 d2 a3 g | f e f d =B2 A2 | z2 e4 A c | B A G F E2 D2 | E4 ^F4 ||
z f f e f/g/ a z2 | z f c d A2 d>e | f B2 B c4 | F4 z4 | z8 | z8 | z4 z2 z f-|
f e d2 c4-|c8 | !mediumphrase!F2 c2 ^c3 c | ^c2 d4 c2 | d4 z4 | z2 a2 a4 | a4 z2 e d |
^c d e d c2 f2 | e2 d2 A3 A | A4 z4 | z8 | z2 d e f4-|f4 f4-|f4 c4-|
c4 c3 B | A8 | B4 A4 | G4 F2 z f | e f c f e d z g | ^f g d g f2 A =B |
^c2 d4 c2 | d3 _b2 a g f | e2 f4 e2 | f4 z2 a2-| a A A2 A2 f2 | e4 d2 z2 |
z2 a3 A A2 | A2 F2 A4 | A4 z4 | z2 F2 F4-|F4 z2 A =B |
^c2 d2 A4 | z2 B c d2 A2 | G A B2 A4-| A2 a3 g f2 | e2 f g a2 A2 | HA8 |]
V:5 clef=bass name=Bass middle=d octave=-2
z8 | z2 a4 b g | ^f4 g4 | a4 A4 | d4 d3 e |
^f2 g2 d4- | d4 G4 | A4 a3 g | ^f2 g2 d4- |d4 G2 g2 |
f2  _e2 d4 | Z6 | z2 d4 G B | A8 |
d4 g a b2 | a3 g ^f2 g2 | d8 | G4 A3 =B | ^c2 d2 A4-|
A8 | d4 e4-| e4 A4 | G4 A4-| A4 d4 ||
Z9 | z2 f2 a3 a | a2 f2 e4 | d4 a3 =b |
^c'2 d'2 a4-| a8- | a4  a g f g | a2 d2 ^c2 A2 | z4 a4 |
g4 a4 | d4 z4 | Z5 | z4 z f e f | c f e f c g ^f g  |
d g ^f g d>e =f g | a2 f2 e3 e | d>c B4 B2 | c8 |
f4 z4 | z2 d2 ^c2 d2 | A2 a2 b2 g2 | a6 A2 | A4 A4 |
!mediumphrase!d2 d2 f4- |f4 z4 | z4 z2 f g | a2 d4 ^c2 | d8 |
G4 A4 | z2 a =b ^c'2 d'2 | a4 A4 | Hd8 |]

